Numix/64/status/weather-showers-scattered.svg

<?xml version="1.0" encoding="UTF-8" standalone="yes"?>
<svg xmlns="http://www.w3.org/2000/svg" xmlns:xlink="http://www.w3.org/1999/xlink" width="64px" height="64px" viewBox="0 0 48 48" version="1.1">
  <defs>
    <clipPath id="clip1">
      <rect width="48" height="48"/>
    </clipPath>
    <g id="surface7" clip-path="url(#clip1)">
      <path style=" stroke:none;fill-rule:nonzero;fill:rgb(92.54902%,92.54902%,92.54902%);fill-opacity:1;" d="M 10.15625 35.710938 C 7.398438 34.9375 10.222656 29.710938 11.914062 28 C 12.726562 30.257812 12.910156 36.488281 10.15625 35.710938 Z M 10.15625 35.710938 "/>
      <path style=" stroke:none;fill-rule:nonzero;fill:rgb(92.54902%,92.54902%,92.54902%);fill-opacity:1;" d="M 16.597656 41.1875 C 13.460938 40.308594 16.671875 34.359375 18.597656 32.414062 C 19.523438 34.984375 19.730469 42.070312 16.597656 41.1875 Z M 16.597656 41.1875 "/>
      <path style=" stroke:none;fill-rule:nonzero;fill:rgb(92.54902%,92.54902%,92.54902%);fill-opacity:1;" d="M 25.058594 36.78125 C 22.25 35.992188 25.125 30.660156 26.851562 28.917969 C 27.679688 31.222656 27.867188 37.570312 25.058594 36.78125 Z M 25.058594 36.78125 "/>
      <path style=" stroke:none;fill-rule:nonzero;fill:rgb(92.54902%,92.54902%,92.54902%);fill-opacity:1;" d="M 30.199219 42.421875 C 26.902344 41.496094 30.277344 35.238281 32.304688 33.191406 C 33.277344 35.894531 33.5 43.347656 30.199219 42.421875 Z M 30.199219 42.421875 "/>
      <path style=" stroke:none;fill-rule:nonzero;fill:rgb(92.54902%,92.54902%,92.54902%);fill-opacity:1;" d="M 36.535156 36.335938 C 33.5625 35.503906 36.605469 29.863281 38.429688 28.019531 C 39.308594 30.453125 39.507812 37.171875 36.535156 36.335938 Z M 36.535156 36.335938 "/>
    </g>
  </defs>
  <g id="surface1">
    <path style=" stroke:none;fill-rule:nonzero;fill:rgb(92.54902%,92.54902%,92.54902%);fill-opacity:1;" d="M 17.476562 10 C 17.128906 10 16.753906 10.015625 16.375 10.066406 C 10.316406 10.84375 10.5 16.042969 10.5 16.042969 C 8.019531 16.464844 6 18.628906 6 20.894531 C 6 23.160156 8.585938 25.164062 10.757812 25.746094 C 12.046875 26.09375 13.742188 25.746094 13.742188 25.746094 C 14.507812 27.097656 17.039062 28 18.800781 28 C 21.675781 28 24.632812 27.046875 25.3125 25.746094 C 25.3125 25.746094 37.222656 26.699219 39.695312 25.746094 C 43.292969 24.359375 42.171875 20.023438 39.777344 18.558594 C 37.382812 17.09375 34.253906 18.117188 34.253906 18.117188 C 34.253906 18.117188 34.238281 15.132812 30.851562 13.707031 C 27.46875 12.28125 24.613281 15.4375 24.613281 15.4375 C 24.613281 15.4375 22.714844 10.03125 17.476562 10 Z M 17.476562 10 "/>
    <use xlink:href="#surface7"/>
  </g>
</svg>

<svg xmlns="http://www.w3.org/2000/svg" xmlns:xlink="http://www.w3.org/1999/xlink" width="64" height="64" viewBox="0 0 48 48">
 <defs>
  <g id="surface7">
   <path d="m 10.156 35.711 c -2.758 -0.773 0.066 -6 1.758 -7.711 c 0.813 2.258 0.996 8.488 -1.758 7.711 m 0 0" style="fill:#ececec;fill-opacity:1;stroke:none;fill-rule:nonzero"/>
   <path d="m 16.598 41.19 c -3.137 -0.879 0.074 -6.828 2 -8.773 c 0.926 2.57 1.133 9.656 -2 8.773 m 0 0" style="fill:#ececec;fill-opacity:1;stroke:none;fill-rule:nonzero"/>
   <path d="m 25.06 36.781 c -2.809 -0.789 0.066 -6.121 1.793 -7.863 c 0.828 2.305 1.016 8.652 -1.793 7.863 m 0 0" style="fill:#ececec;fill-opacity:1;stroke:none;fill-rule:nonzero"/>
   <path d="m 30.2 42.42 c -3.297 -0.926 0.078 -7.184 2.105 -9.23 c 0.973 2.703 1.195 10.156 -2.105 9.23 m 0 0" style="fill:#ececec;fill-opacity:1;stroke:none;fill-rule:nonzero"/>
   <path d="m 36.535 36.34 c -2.973 -0.832 0.07 -6.473 1.895 -8.316 c 0.879 2.434 1.078 9.152 -1.895 8.316 m 0 0" style="fill:#ececec;fill-opacity:1;stroke:none;fill-rule:nonzero"/>
  </g>
 </defs>
 <g>
  <path d="m 17.477 10 c -0.348 0 -0.723 0.016 -1.102 0.066 c -6.06 0.777 -5.875 5.977 -5.875 5.977 c -2.48 0.422 -4.5 2.586 -4.5 4.852 c 0 2.266 2.586 4.27 4.758 4.852 c 1.289 0.348 2.984 0 2.984 0 c 0.766 1.352 3.297 2.254 5.059 2.254 c 2.875 0 5.832 -0.953 6.512 -2.254 c 0 0 11.91 0.953 14.383 0 c 3.598 -1.387 2.477 -5.723 0.082 -7.188 c -2.395 -1.465 -5.523 -0.441 -5.523 -0.441 c 0 0 -0.016 -2.984 -3.402 -4.41 c -3.383 -1.426 -6.238 1.73 -6.238 1.73 c 0 0 -1.898 -5.406 -7.137 -5.438 m 0 0" style="fill:#ececec;fill-opacity:1;stroke:none;fill-rule:nonzero"/>
  <use xlink:href="#surface7"/>
 </g>
</svg>
